X:1
T:Bremen (Neumark) 88.88.8
T:George Neumark, 1641
T:Bremen (Neumark) 88.88.8
T:Public Domain
C:George Neumark, 1641
Z:Public Domain
%%score ( 1 2 ) ( 3 4 )
L:1/8
M:4/4
K:C
V:1 treble 
V:2 treble 
V:3 bass 
V:4 bass 
V:1
 (CD) | [EA]2 [EB]2 [Ec]2 (ED) | [CA]2 (BA) [E^G]2 [E=G]2 | [EG]2 [DF]2 [CE]2 [CA]2 | %4
 [FA]2 [E^G]2 [EA]2 (CD) | [EA]2 [EB]2 [Ec]2 (ED) | [CA]2 (BA) [E^G]2 [E=G]2 | %7
 [EG]2 [DF]2 [CE]2 [CA]2 | [FA]2 [E^G]2 [EA]2 [EB]2 | [Ec]2 [Gd]2 [Ge]2 [Ge]2 | %10
 [Ad]2 [Gd]2 [Ec]2 [Ee]2 | [Ed]2 [Ec]2 (FE)([EA][DB]) | c2 (z D) [^CA]2 |] %13
V:2
 E2 | x6 B2 | x2 F2 x4 | x8 | x6 E2 | x6 B2 | x2 F2 x4 | x8 | x8 | x8 | x8 | x4 B2 x2 | E3 B2 x |] %13
V:3
 (A,B,) | [A,C]2 [^G,B,]2 A,2 [E,G,]2 | (F,E,)(DC) [E,B,]2 [E,B,]2 | %3
 [A,,C]2 [B,,G,]2 [C,G,]2 (F,E,) | (B,C) [E,D]2 [A,,C]2 (A,B,) | [A,C]2 [^G,B,]2 A,2 [E,G,]2 | %6
 (F,E,)(DC) [E,B,]2 [E,B,]2 | [A,,C]2 [B,,G,]2 [C,G,]2 (F,E,) | (B,C) [E,D]2 [A,,C]2 [E,^G,]2 | %9
 A,2 (G,F,) (E,D,) [C,C]2 | [F,C]2 [G,B,]2 [C,C]2 [C,G,]2 | %11
 [B,,^G,]2 [A,,A,]2 ([D,A,][E,G,]) [F,A,]2 | (E,D,) [E,^G,]2 [A,,A,]2 |] %13
V:4
 A,,2 | x4 A,2 x2 | A,2 D,2 x4 | x6 A,2 | D,2 x3 A,,2 x | x4 A,2 x2 | A,2 D,2 x4 | x6 A,2 | %8
 D,2 x6 | A,2 B,2 C2 x2 | x8 | x8 | A,2 x4 |] %13

